X: 464
T: Bâis Oldu Çeşm-i Mestin
C: Bolâhenk Nuri Bey
O: Turkey
F: http://compmusic.upf.edu/node/140
N: yegah--sarki--agiraksak--bais_oldu--bolahenk_nuri_bey
N: makam= yegah
N: form= sarki
N: usul= agiraksak = 9/4
M: 9/4
L: 1/16
K: C _2/4B ^f  
Q: 1/4=72
%%MIDI tuningsystem comma53
cdcd e2=f2 e2{g}fe d2{f}ed c2{e}dc B2{d}cB A2_1/4B2 A2G2 ^3/4F2E2  | 
w:  ARANAĞME  | 
D^3/4CDE ^3/4F2G2 AGA=B A2G2 F3D E3C D4 A2_2/4B^3/4c d4  | 
w:   | 
cdcd e2=f2 e2{g}fe d2{f}ed c2{e}dc B2{d}cB A2_1/4B2 A2G2 ^3/4F2E2  | 
w:  ARANAĞME  | 
D^3/4CDE ^3/4F2G2 AGA=B A2G2 E3D E3C D6de d^3/4c_2/4Bc  | 
w:   | 
d3/2e/^3/4fg afge d2d4e2 e2d2 c2B2 dccB c4 d2e2  | 
w:  *  *  *  *  *  *  *  *  *  Bâ is_ ol *  *  *  du   | 
d2cd c2B2 z2cd c2d2 d3c c3B B3/2c/BA A4 BcBc  | 
w:  *  *  *  *  *  çeşm_ *  *  i  mes *  *  *  tin  *  *  *  *  SAZ  | 
A2z2 A2B2 A4 =B2^3/4c2 d2de =fgfe eddc d8  | \
w:  *  â *  *  şı *  kın  *  *  *  *  *  *  ber  | 
.d4 d2e2 d4 e2^3/4f2 g2=f2 e2d2 edcd c2B2 .g4  | 
w:  *  bâ *  *  *  *  *  *  *  *  *  *  *  *  *  *  dı  | 
g^3/4fga g2f2 fefg f2e2 e=fed e3/2g/fe edd^3/4c d3e ^3/4fg^1/4fe  | 
w:  na   *  *  *  *  *  *  *  *  *  *  *  *  *  *  *  *  *  *  *  *  *  *  *  *  SAZ  | 
edd^3/4c d4 z2de d2e2 ^3/4f2g2 a2_1/4b2 a2g2 f2e2 f2a2  | \
w:  *  *  *  *  *  Ver *  *  me sin  *  *  *  fır  | 
ag=fe d2c2 B2.g4fe e3d d2ef edcB A4 B2c2  | 
w:  *  *  *  *  *  *  *  sat  fe *  lek  *  *  *  *  ol  *  *  *  *  SAZ  | 
A4 G2A4d2 d3c c3B B3A A3B AG^3/4FE F4  | \
w:  *  gam *  *  ze  *  i  *  *  *  cel  | 
.^3/4F4 E2F2 G4 A2=B2 A2GA G3F AGFE D4 d4  | 
w:  *  lâ *  *  *  *  *  *  *  *  *  *  *  *  *  *  dı  | 
z2d4cB A6G^3/4F F3E EFED D6ag g^3/4ff^3/4e  | \
w:  na   *  *  *  *  *  *  *  *  *  *  *  *  SAZ  | 
^3/4f3/2e/fg fede d2d4^3/4e2 f2g2 f2e2 edd^3/4c d2e2 f3/2a/gf  | 
w:  *  *  *  *  *  *  *  *  *  Sap la nır  *  *  *  bî  | 
^3/4f6^3/4c2 z2c4d2 eddc =B^3/4AB2 A4 B8  | \
w:  *  *  çâ re gâ *  *  *  *  *  *  nın   | 
z4 ^3/4A2=B2 ^c4 d4 ^3/4e2^3/4f2 dagf e4 f8  | 
w:  sî *  *  ne  i  *  *  *  *  *  pul  | 
.^3/4f4 g2a2 a6ag g3=f f3e edcd c2B2 g4  | \
w:  *  la *  *  *  *  *  *  *  *  *  *  *  *  *  *  dı  | 
g^3/4fga g2f2 fefg f2e2 e=fed e3/2g/fe edd^3/4c d3e ^3/4fg^1/4fe  | 
w:  na   *  *  *  *  *  *  *  *  *  *  *  *  *  *  *  *  *  *  *  *  *  *  *  *  SAZ  | 
edd^3/4c d4 z2de d2e2 ^3/4f2g2 a2_1/4b2 a2g2 f2e2 f2a2  | \
w:  *  *  *  *  *  Ver *  *  me sin  *  *  *  fır  | 
ag=fe d2c2 B2.g4fe e3d d2ef edcB A4 B2c2  | 
w:  *  *  *  *  *  *  *  sat  fe *  lek  *  *  *  *  ol  *  *  *  *  SAZ  | 
A4 G2A4d2 d3c c3B B3A A3B AG^3/4FE F4  | \
w:  *  gam *  *  ze  *  i  *  *  *  cel  | 
.^3/4F4 E2F2 G4 A2=B2 A2GA G3F AGFE D4 d4  | 
w:  *  lâ *  *  *  *  *  *  *  *  *  *  *  *  *  *  dı  | 
z2d4cB A6G^3/4F F3E EFED D6|
w:  na    | 


